X:308
T: VIVAT BACCHUS BACCHUS LEBE
N: F0533
O: Europa, Mitteleuropa, Deutschland
R: Studenten -, Trink - Lied, Rundgesang
M: 2/4
L: 1/16
K: F
 | F3FF2F2 | F2C2A,2C2 |
F4c4 | A4F4 |
G6G2 | G6F2 | E4D4 | C4z4 |
F3FF2F2 | F2C2A,2C2 |
F4c4 | A4F4 |
G6G2 | G6F2 | E4D4 | C4z2
F2 | E2D2E2F2 | G2A2G2
F2 | E2D2E2F2 | G2A2G2
F2 | E2E2D2G2 | c4z2
B2 | A2G2A2B2 | c2d2c2
B2 | A2G2A2B2 | c2d2c2
B2 | A2A2G2G2 | F4z4 |
F3FF2F2 | E2G2C4 |
G3GG2G2 | A2c2F2
B2 | A2G2A2B2 | c2d2c2
B2 | A2G2A2B2 | c2d2c2
B2 | A4G2G2 | F4z2
C2 | F4A4 | c6
B2 | A2A2G2G2 | F4z4

@@@ Tune index: 5739
